docs/custom_svgs/wall-nyro.svg

<svg viewBox="0 0 24 24" height="24px" width="24px" fill="#44739e" xmlns="http://www.w3.org/2000/svg"><title>hue:wall-nyro</title><desc>Source: https://github.com/arallsopp/hass-hue-icons</desc><path d="M 2.2579136,18.177743 4.4000009,18.301324 18.653119,17.189089 18.570734,12.081035 4.7501474,9.6505893 4.7453954,8.45986 9.0345683,7.3231269 22.154856,11.030587 22.444578,10.96878 22.443235,9.6093832 9.0757641,4.7690859 2.2375647,6.7669926 Z"/></svg>

<svg viewBox="0 0 24 24" height="24px" width="24px" fill="#44739e" xmlns="http://www.w3.org/2000/svg"><title>hue:wall-nyro</title><desc>Source: https://github.com/arallsopp/hass-hue-icons</desc><path d="M2.26,18.18L4.4,18.3l14.25-1.11l-0.08-5.11L4.75,9.65l0-1.19l4.29-1.14l13.12,3.71l0.29-0.06l0-1.36L9.08,4.77 l-6.84,2L2.26,18.18z"/></svg>
